packages/core/src/svgs/aave.svg

<svg width="24" height="24" viewBox="0 0 24 24" fill="none" xmlns="http://www.w3.org/2000/svg">
<g clip-path="url(#clip0_31_5515)">
<path d="M0 0H24V24H0V0Z" fill="url(#paint0_linear_31_5515)"/>
<path d="M17.9484 16.8546L13.526 5.97878C13.4506 5.73989 13.3026 5.53045 13.1026 5.37964C12.904 5.23017 12.6632 5.14737 12.4147 5.14307H12.026C11.7781 5.14816 11.5381 5.2314 11.3403 5.38092C11.1411 5.53165 10.9937 5.74058 10.9186 5.97878L8.99515 10.7184L7.81529 10.7145C6.52958 10.7145 6.52958 12.4288 7.81529 12.4288H8.31844L6.48415 16.8546C6.44909 16.9538 6.43042 17.058 6.42886 17.1632C6.42029 17.3852 6.49786 17.6021 6.64486 17.7675C6.72047 17.8458 6.81201 17.907 6.9133 17.947C7.0146 17.9869 7.12328 18.0046 7.23201 17.9989C7.39668 17.9965 7.55645 17.9426 7.68886 17.8446C7.82686 17.7396 7.93486 17.5991 8.00172 17.4375L10.0263 12.4288H11.0146C12.3166 12.4288 12.3166 10.7145 11.0244 10.7145L10.6773 10.7184L12.2201 6.79692L16.4266 17.4375C16.493 17.5991 16.601 17.7396 16.7394 17.8446C16.8723 17.9424 17.0313 17.9964 17.1959 17.9989C17.3054 18.0059 17.4151 17.9888 17.5172 17.9488C17.6194 17.9088 17.7116 17.8469 17.7873 17.7675C17.933 17.6016 18.0089 17.3848 17.999 17.1632C18.0043 17.0579 17.9873 16.9527 17.9484 16.8546Z" fill="white"/>
</g>
<defs>
<linearGradient id="paint0_linear_31_5515" x1="25.0714" y1="-1.07143" x2="-0.642858" y2="24.6429" gradientUnits="userSpaceOnUse">
<stop stop-color="#B14992"/>
<stop offset="0.24" stop-color="#925C9A"/>
<stop offset="0.492" stop-color="#647BA6"/>
<stop offset="0.671" stop-color="#3896B1"/>
<stop offset="0.956" stop-color="#00ABBB"/>
</linearGradient>
<clipPath id="clip0_31_5515">
<rect width="24" height="24" fill="white"/>
</clipPath>
</defs>
</svg>

<svg xmlns="http://www.w3.org/2000/svg" width="24" height="24" fill="none" viewBox="0 0 24 24"><g clip-path="url(#a)"><path fill="url(#b)" d="M0 0h24v24H0z"/><path fill="#fff" d="M17.948 16.855 13.526 5.979a1.2 1.2 0 0 0-.423-.6 1.18 1.18 0 0 0-.688-.236h-.389a1.18 1.18 0 0 0-.686.238c-.199.15-.346.36-.421.598l-1.924 4.74-1.18-.005c-1.285 0-1.285 1.715 0 1.715h.503l-1.834 4.426a1 1 0 0 0-.055.308.86.86 0 0 0 .216.604.76.76 0 0 0 .587.232.8.8 0 0 0 .457-.154 1 1 0 0 0 .313-.407l2.024-5.01h.989c1.302 0 1.302-1.714.01-1.714l-.348.004 1.543-3.921 4.207 10.64a1 1 0 0 0 .312.408.8.8 0 0 0 .457.154.75.75 0 0 0 .591-.232.86.86 0 0 0 .212-.604.7.7 0 0 0-.05-.308"/></g><defs><linearGradient id="b" x1="25.071" x2="-.643" y1="-1.071" y2="24.643" gradientUnits="userSpaceOnUse"><stop stop-color="#B14992"/><stop offset=".24" stop-color="#925C9A"/><stop offset=".492" stop-color="#647BA6"/><stop offset=".671" stop-color="#3896B1"/><stop offset=".956" stop-color="#00ABBB"/></linearGradient><clipPath id="a"><path fill="#fff" d="M0 0h24v24H0z"/></clipPath></defs></svg>
